X:1
T:Title
%%score { 1 | 2 }
L:1/8
M:4/4
K:Bb
V:1 treble nm="Grand Piano"
V:2 bass 
V:1
 z4 z2[Q:1/4=112] [DF]2 | [DF]4 [B,D]2 [CE]2 | [DF]2 [DB]4 [DB]2 | B4 G2 B2 | F6 [DF]2 | %5
 [EA]4 G2 A2 | B2 d4 d2 | [=Ec]4 [EG]2 [Ec]2 | [Ec]6 [EF]2 | [DF]4 [B,D]2 [CE]2 | %10
 [DF]2 [DB]4 [Fd]2 | [^Fd]4 [Gd]2 [Ac]2 | [GB]6 [_AB]2 | [GB]4 G2 B2 | F2 [FB]4 [Ge]2 | d4 c2 c2 | %16
[M:3/4] [DB]6 |[M:1/4] [DF]2 |[M:4/4] [DB]2 [DB]4 [DG]2 | [EB]2 [EA]4 F2 | c4 G2 A2 | [DB]6 [DF]2 | %22
 [Fd]4 [^Fd]2 [Ac]2 | B4 B2 B2 | [=Ec]2 [EG]4 [Ec]2 | [Ec]6 [EF]2 | [DF]4 [B,D]2 [CE]2 | %27
 [DF]2 [DB]4 [Fd]2 | [^Fd]4 [Gd]2 [Ac]2 | [GB]6 [_AB]2 | [GB]4 G2 B2 | F2 [FB]4 [Ge]2 | d4 c2 c2 | %33
[M:3/4] [DB]6 |] %34
V:2
 z4 z2 [B,,B,]2 | [B,,B,]4 [B,,F,]2 [B,,F,]2 | [B,,B,]2 [B,,F,]4 [B,,F,]2 | %3
 [E,G,E]4 [E,B,E]2 [G,B,E]2 | [B,D]6 [B,,B,]2 | [C,F,]4 [F,A,E]2 [F,CE]2 | %6
 [G,B,D]2 [G,B,G]4 [G,B,G]2 | [C,B,]4 [C,B,]2 [C,B,]2 | [F,,F,A,]6 [F,A,]2 | %9
 [B,,B,]4 [B,,F,]2 [B,,F,]2 | [B,,B,]2 [B,,B,]4 [B,,B,]2 | [D,A,]4 [=E,A,]2 [^F,D]2 | %12
 [G,D]6 [F,D]2 | [E,E]4 [E,B,E]2 [G,B,E]2 | [B,D]2 [D,B,]4 [E,B,]2 | [F,B,F]4 [F,A,E]2 [F,E]2 | %16
[M:3/4] [B,,F,]6 |[M:1/4] [B,,B,]2 |[M:4/4] [B,,F,]2 [B,,F,]4 [B,,F,]2 | [C,F,]2 [C,F,]4 [F,A,E]2 | %20
 [F,A,E]4 [F,B,E]2 [F,CE]2 | [B,,B,]6 [B,,B,]2 | [B,,B,]4 [D,A,]2 [D,D]2 | %23
 [G,DG]4 [G,DG]2[K:bass] [G,B,D]2 | [C,B,]2 [C,B,]4 [C,B,]2 | [F,,F,A,]6 [F,A,]2 | %26
 [B,,B,]4 [B,,F,]2 [B,,F,]2 | [B,,B,]2 [B,,B,]4 [B,,B,]2 | [D,A,]4 [=E,A,]2 [^F,D]2 | %29
 [G,D]6 [F,D]2 | [E,E]4 [E,B,E]2 [G,B,E]2 | [B,D]2 [D,B,]4 [E,B,]2 | [F,B,F]4 [F,A,E]2 [F,E]2 | %33
[M:3/4] [B,,F,]6 |] %34

